X:12
T:Bornpipe Hornpipe, The
R:hornpipe
H:Also played in G, #6
D:De Dannan: Masse Hornpipe, The



*****************************


10300 4 1.2090666 

<start
Z:id:hn-hornpipe-18
M:C|
K:G
BA|B2B2 B2B2|d2B2 B2AB|c2AB A2GF|G2GF G2:|
|:(3DEF|GFGA B2dB|AGAB cAF


*****************************


10400 4 1.5523316 

<start>
